logos/pandascrow/pandascrow.svg

<svg width="216" height="55" viewBox="0 0 216 55" fill="none" xmlns="http://www.w3.org/2000/svg">
<path d="M81.46 20.8C80.7667 20.88 80.14 21.06 79.58 21.34C79.02 21.62 78.54 21.9733 78.14 22.4C77.74 22.8133 77.4333 23.2867 77.22 23.82C77.0067 24.34 76.9 24.9 76.9 25.5C76.9 25.6333 76.9067 25.7667 76.92 25.9C76.9333 26.0333 76.9533 26.1667 76.98 26.3C77.0733 26.7267 77.2467 27.1733 77.5 27.64C77.7667 28.0933 78.06 28.5733 78.38 29.08C78.7133 29.5867 79.06 30.1267 79.42 30.7C79.78 31.2733 80.1067 31.8867 80.4 32.54C80.6933 33.18 80.9333 33.8667 81.12 34.6C81.32 35.3333 81.42 36.1133 81.42 36.94C81.42 38.1933 81.1933 39.36 80.74 40.44C80.2867 41.5067 79.6333 42.44 78.78 43.24C77.94 44.04 76.9133 44.6867 75.7 45.18C74.4867 45.66 73.12 45.9467 71.6 46.04C71.4133 46.0267 71.2667 45.9667 71.16 45.86C71.0533 45.74 71 45.56 71 45.32V41.66C71 41.46 71.06 41.3 71.18 41.18C71.3 41.06 71.4533 41 71.64 41C72.3333 40.92 72.96 40.7333 73.52 40.44C74.08 40.1467 74.5467 39.7933 74.92 39.38C75.3067 38.9533 75.6 38.4733 75.8 37.94C76.0133 37.4067 76.12 36.86 76.12 36.3C76.12 36.1667 76.1133 36.0333 76.1 35.9C76.0867 35.7533 76.0667 35.6067 76.04 35.46C75.9333 35.02 75.7533 34.5667 75.5 34.1C75.2467 33.6333 74.9533 33.1467 74.62 32.64C74.3 32.12 73.96 31.58 73.6 31.02C73.2533 30.4467 72.9333 29.8467 72.64 29.22C72.3467 28.58 72.1 27.9067 71.9 27.2C71.7133 26.48 71.62 25.72 71.62 24.92C71.62 23.6533 71.8533 22.4667 72.32 21.36C72.7867 20.2533 73.4467 19.2867 74.3 18.46C75.1667 17.6333 76.2067 16.98 77.42 16.5C78.6333 16.0067 79.98 15.7467 81.46 15.72C81.6467 15.72 81.8 15.78 81.92 15.9C82.04 16.02 82.1 16.2067 82.1 16.46V20.16C82.1 20.36 82.04 20.52 81.92 20.64C81.8 20.7467 81.6467 20.8 81.46 20.8ZM109.422 18.64C109.729 18.84 109.882 19.0867 109.882 19.38C109.882 19.4867 109.856 19.6067 109.802 19.74L107.542 23.06C107.436 23.18 107.342 23.28 107.262 23.36C107.182 23.4267 107.096 23.46 107.002 23.46C106.856 23.46 106.676 23.38 106.462 23.22C105.676 22.6333 104.796 22.18 103.822 21.86C102.862 21.54 101.862 21.36 100.822 21.32C99.3822 21.32 98.0555 21.5867 96.8422 22.12C95.6289 22.64 94.5755 23.3533 93.6822 24.26C92.8022 25.1533 92.1155 26.2 91.6222 27.4C91.1289 28.6 90.8822 29.8733 90.8822 31.22C90.8822 32.6067 91.1289 33.9 91.6222 35.1C92.1289 36.2867 92.8155 37.32 93.6822 38.2C94.5622 39.0667 95.5822 39.7533 96.7422 40.26C97.9155 40.7533 99.1689 41 100.502 41C101.516 41 102.489 40.8533 103.422 40.56C104.356 40.2533 105.236 39.82 106.062 39.26C106.249 39.14 106.422 39.0333 106.582 38.94C106.756 38.8467 106.889 38.8 106.982 38.8C107.116 38.8 107.302 38.9467 107.542 39.24C107.796 39.5333 108.056 39.88 108.322 40.28C108.602 40.68 108.876 41.0933 109.142 41.52C109.409 41.9467 109.636 42.3 109.822 42.58C109.889 42.7533 109.922 42.8933 109.922 43C109.922 43.16 109.869 43.2933 109.762 43.4C109.669 43.4933 109.549 43.5933 109.402 43.7C108.149 44.5667 106.796 45.24 105.342 45.72C103.889 46.2 102.316 46.44 100.622 46.44C99.2089 46.44 97.8489 46.26 96.5422 45.9C95.2489 45.54 94.0355 45.0333 92.9022 44.38C91.7689 43.7133 90.7355 42.92 89.8022 42C88.8822 41.0667 88.0889 40.0333 87.4222 38.9C86.7689 37.7667 86.2622 36.5533 85.9022 35.26C85.5422 33.9667 85.3622 32.6133 85.3622 31.2C85.3622 29.7867 85.5422 28.4333 85.9022 27.14C86.2622 25.8333 86.7755 24.6133 87.4422 23.48C88.1089 22.3467 88.9022 21.3133 89.8222 20.38C90.7555 19.4467 91.7889 18.6533 92.9222 18C94.0555 17.3333 95.2689 16.82 96.5622 16.46C97.8689 16.0867 99.2289 15.9 100.642 15.9C102.269 15.9 103.809 16.1333 105.262 16.6C106.729 17.0533 108.116 17.7333 109.422 18.64ZM100.922 27.34C101.456 27.34 101.956 27.4467 102.422 27.66C102.889 27.86 103.296 28.1333 103.642 28.48C104.002 28.8267 104.282 29.24 104.482 29.72C104.682 30.1867 104.782 30.6867 104.782 31.22C104.782 31.7533 104.682 32.2533 104.482 32.72C104.282 33.1867 104.002 33.5933 103.642 33.94C103.296 34.2733 102.889 34.54 102.422 34.74C101.956 34.9267 101.456 35.02 100.922 35.02C100.389 35.02 99.8889 34.92 99.4222 34.72C98.9555 34.52 98.5422 34.2467 98.1822 33.9C97.8355 33.5533 97.5622 33.1533 97.3622 32.7C97.1622 32.2333 97.0622 31.74 97.0622 31.22C97.0622 30.6867 97.1622 30.1867 97.3622 29.72C97.5622 29.24 97.8355 28.8267 98.1822 28.48C98.5422 28.1333 98.9555 27.86 99.4222 27.66C99.8889 27.4467 100.389 27.34 100.922 27.34ZM124.853 35.32H120.853V45.26C120.853 45.7533 120.593 46 120.073 46H116.053C115.533 46 115.273 45.7533 115.273 45.26C115.273 42.9 115.273 40.5667 115.273 38.26C115.286 35.94 115.293 33.6 115.293 31.24C115.293 31.0133 115.366 30.8267 115.513 30.68C115.66 30.5333 115.846 30.46 116.073 30.46H122.213L114.693 17.04C114.613 16.92 114.573 16.7933 114.573 16.66C114.573 16.4333 114.733 16.32 115.053 16.32H115.133H128.313C129.646 16.32 130.873 16.5867 131.993 17.12C133.126 17.6533 134.1 18.3667 134.913 19.26C135.74 20.14 136.38 21.1533 136.833 22.3C137.286 23.4467 137.513 24.64 137.513 25.88C137.513 26.8667 137.36 27.8333 137.053 28.78C136.746 29.7267 136.306 30.6 135.733 31.4C135.16 32.2 134.473 32.9067 133.673 33.52C132.873 34.1333 131.98 34.6 130.993 34.92L136.913 45.34C136.953 45.4333 136.986 45.52 137.013 45.6C137.053 45.6667 137.073 45.7267 137.073 45.78C137.073 45.9267 136.893 46 136.533 46H131.533C131.053 46 130.673 45.7467 130.393 45.24L124.853 35.32ZM131.993 25.84C131.993 25.28 131.886 24.74 131.673 24.22C131.473 23.7 131.193 23.2333 130.833 22.82C130.473 22.3933 130.046 22.0467 129.553 21.78C129.06 21.5 128.526 21.3267 127.953 21.26C127.673 21.2333 127.393 21.2133 127.113 21.2C126.833 21.1867 126.546 21.18 126.253 21.18H123.213L128.413 30.26C128.92 30.1667 129.386 29.98 129.813 29.7C130.253 29.42 130.633 29.0867 130.953 28.7C131.273 28.3 131.526 27.8533 131.713 27.36C131.9 26.8667 131.993 26.36 131.993 25.84ZM147.114 31.14C147.114 32.5133 147.361 33.8 147.854 35C148.347 36.2 149.027 37.2467 149.894 38.14C150.774 39.0333 151.801 39.74 152.974 40.26C154.161 40.7667 155.434 41.02 156.794 41.02C158.154 41.02 159.427 40.7667 160.614 40.26C161.801 39.74 162.827 39.0333 163.694 38.14C164.561 37.2467 165.241 36.2 165.734 35C166.241 33.8 166.494 32.5133 166.494 31.14C166.494 29.78 166.241 28.5 165.734 27.3C165.241 26.1 164.561 25.06 163.694 24.18C162.827 23.2867 161.801 22.58 160.614 22.06C159.427 21.54 158.154 21.28 156.794 21.28C155.434 21.28 154.161 21.54 152.974 22.06C151.801 22.58 150.774 23.2867 149.894 24.18C149.027 25.06 148.347 26.1 147.854 27.3C147.361 28.5 147.114 29.78 147.114 31.14ZM141.534 31.2C141.534 29.7867 141.714 28.4333 142.074 27.14C142.434 25.8333 142.947 24.6133 143.614 23.48C144.281 22.3467 145.074 21.3133 145.994 20.38C146.927 19.4467 147.961 18.6533 149.094 18C150.227 17.3333 151.441 16.82 152.734 16.46C154.041 16.0867 155.401 15.9 156.814 15.9C158.214 15.9 159.561 16.08 160.854 16.44C162.161 16.8 163.381 17.3133 164.514 17.98C165.647 18.6467 166.681 19.4467 167.614 20.38C168.547 21.3 169.341 22.3333 169.994 23.48C170.661 24.6133 171.174 25.8333 171.534 27.14C171.907 28.4467 172.094 29.8067 172.094 31.22C172.094 32.62 171.907 33.9733 171.534 35.28C171.174 36.5733 170.661 37.7867 169.994 38.92C169.341 40.04 168.547 41.0667 167.614 42C166.681 42.92 165.647 43.7133 164.514 44.38C163.381 45.0333 162.161 45.54 160.854 45.9C159.561 46.26 158.207 46.44 156.794 46.44C155.381 46.44 154.021 46.26 152.714 45.9C151.421 45.54 150.207 45.0333 149.074 44.38C147.941 43.7133 146.907 42.92 145.974 42C145.054 41.0667 144.261 40.0333 143.594 38.9C142.941 37.7667 142.434 36.5533 142.074 35.26C141.714 33.9667 141.534 32.6133 141.534 31.2ZM156.834 27.32C157.367 27.32 157.867 27.4267 158.334 27.64C158.801 27.84 159.207 28.1133 159.554 28.46C159.914 28.8067 160.194 29.22 160.394 29.7C160.594 30.1667 160.694 30.6667 160.694 31.2C160.694 31.7333 160.594 32.2333 160.394 32.7C160.194 33.1667 159.914 33.5733 159.554 33.92C159.207 34.2533 158.801 34.52 158.334 34.72C157.867 34.9067 157.367 35 156.834 35C156.301 35 155.801 34.9 155.334 34.7C154.867 34.5 154.454 34.2267 154.094 33.88C153.747 33.5333 153.474 33.1333 153.274 32.68C153.074 32.2133 152.974 31.72 152.974 31.2C152.974 30.6667 153.074 30.1667 153.274 29.7C153.474 29.22 153.747 28.8067 154.094 28.46C154.454 28.1133 154.867 27.84 155.334 27.64C155.801 27.4267 156.301 27.32 156.834 27.32ZM200.526 37.2C201.072 35.7333 201.652 34.1667 202.266 32.5C202.892 30.8333 203.519 29.14 204.146 27.42C204.786 25.7 205.426 23.9867 206.066 22.28C206.706 20.56 207.319 18.9067 207.906 17.32C208.039 17.0667 208.226 16.8333 208.466 16.62C208.706 16.4067 208.966 16.3 209.246 16.3H213.186C213.532 16.3 213.792 16.38 213.966 16.54C214.152 16.6867 214.246 16.8933 214.246 17.16C214.246 17.2133 214.232 17.2933 214.206 17.4C214.192 17.4933 214.186 17.5533 214.186 17.58L203.246 44.62C203.192 44.7533 203.126 44.9 203.046 45.06C202.979 45.22 202.886 45.3733 202.766 45.52C202.659 45.6533 202.526 45.7667 202.366 45.86C202.206 45.9533 202.019 46 201.806 46H199.186C198.946 46 198.739 45.9467 198.566 45.84C198.406 45.72 198.259 45.5733 198.126 45.4C198.006 45.2133 197.892 45 197.786 44.76C197.692 44.52 197.599 44.2733 197.506 44.02C196.732 42.0733 196.019 40.28 195.366 38.64C194.712 37 194.099 35.4733 193.526 34.06L189.266 44.62C189.212 44.7533 189.146 44.9 189.066 45.06C188.999 45.22 188.906 45.3733 188.786 45.52C188.679 45.6533 188.546 45.7667 188.386 45.86C188.226 45.9533 188.039 46 187.826 46H185.206C184.966 46 184.759 45.9467 184.586 45.84C184.426 45.72 184.279 45.5733 184.146 45.4C184.026 45.2133 183.912 45 183.806 44.76C183.712 44.52 183.619 44.2733 183.526 44.02C182.219 40.7267 181.059 37.8267 180.046 35.32C179.046 32.8133 178.172 30.6267 177.426 28.76C176.679 26.8933 176.046 25.32 175.526 24.04C175.019 22.7467 174.592 21.68 174.246 20.84C173.912 19.9867 173.652 19.3267 173.466 18.86C173.279 18.38 173.139 18.02 173.046 17.78C172.966 17.5267 172.912 17.3667 172.886 17.3C172.872 17.22 172.866 17.1533 172.866 17.1C172.866 16.5667 173.199 16.3 173.866 16.3H177.926C178.552 16.3 178.959 16.6067 179.146 17.22L186.546 37.2C187.146 35.5867 187.779 33.8733 188.446 32.06C189.126 30.2467 189.812 28.3933 190.506 26.5C189.906 25.0067 189.399 23.7467 188.986 22.72C188.572 21.6933 188.232 20.84 187.966 20.16C187.699 19.48 187.486 18.9467 187.326 18.56C187.179 18.1733 187.066 17.88 186.986 17.68C186.919 17.48 186.879 17.3467 186.866 17.28C186.852 17.2133 186.846 17.1533 186.846 17.1C186.846 16.5667 187.179 16.3 187.846 16.3H199.206C199.552 16.3 199.812 16.38 199.986 16.54C200.172 16.6867 200.266 16.8933 200.266 17.16C200.266 17.2133 200.252 17.2933 200.226 17.4C200.212 17.4933 200.206 17.5533 200.206 17.58L196.586 26.54L200.526 37.2Z" fill="#093373"/>
<path fill-rule="evenodd" clip-rule="evenodd" d="M0 8.5C0 11.846 1.93331 14.7404 4.7438 16.1271C2.98661 19.7103 2 23.7399 2 28C2 42.2226 12.9969 53.8768 26.9518 54.9235C26.9496 54.9158 26.949 54.908 26.95 54.9C26.9867 54.6067 26.9696 48.8285 26.9578 45.7673C22.9711 44.8424 20 41.2681 20 37C20 32.0294 24.0294 28 29 28C33.9706 28 38 32.0294 38 37C38 41.2982 34.987 44.8926 30.9579 45.7864C30.9696 48.8525 30.9866 54.6073 30.95 54.9C30.9487 54.9108 30.9444 54.9213 30.9375 54.9316C44.9449 53.9384 56 42.2602 56 28C56 23.5656 54.931 19.3808 53.0366 15.6894C55.4184 14.1834 57 11.5264 57 8.5C57 3.80558 53.1944 0 48.5 0C45.4736 0 42.8166 1.58163 41.3106 3.96341C37.6192 2.06902 33.4344 1 29 1C24.2587 1 19.8028 2.22212 15.9302 4.36853C14.4781 1.76265 11.6949 0 8.5 0C3.80558 0 0 3.80558 0 8.5Z" fill="#093373"/>
<circle cx="29" cy="37" r="3" fill="#FF9800"/>
<rect x="66" y="51" width="145" height="4" fill="#FF9800"/>
<circle cx="156.8" cy="31" r="4" fill="#FF9800"/>
<circle cx="100.9" cy="31" r="4" fill="#FF9800"/>
</svg>

<svg width="216" height="55" fill="none" xmlns="http://www.w3.org/2000/svg">
  <path d="M81.46 20.8c-.693.08-1.32.26-1.88.54-.56.28-1.04.633-1.44 1.06-.4.413-.707.887-.92 1.42a4.384 4.384 0 00-.24 2.48c.093.427.267.873.52 1.34.267.453.56.933.88 1.44.333.507.68 1.047 1.04 1.62.36.573.687 1.187.98 1.84a12.1 12.1 0 01.72 2.06c.2.733.3 1.513.3 2.34 0 1.253-.227 2.42-.68 3.5a8.192 8.192 0 01-1.96 2.8c-.84.8-1.867 1.447-3.08 1.94-1.213.48-2.58.767-4.1.86a.665.665 0 01-.44-.18c-.107-.12-.16-.3-.16-.54v-3.66c0-.2.06-.36.18-.48s.273-.18.46-.18a5.332 5.332 0 001.88-.56 4.967 4.967 0 001.4-1.06c.387-.427.68-.907.88-1.44a4.38 4.38 0 00.24-2.48 5.661 5.661 0 00-.54-1.36 20.223 20.223 0 00-.88-1.46c-.32-.52-.66-1.06-1.02-1.62a19.213 19.213 0 01-.96-1.8c-.293-.64-.54-1.313-.74-2.02a9.05 9.05 0 01-.28-2.28c0-1.267.233-2.453.7-3.56a8.703 8.703 0 011.98-2.9c.867-.827 1.907-1.48 3.12-1.96 1.213-.493 2.56-.753 4.04-.78.187 0 .34.06.46.18s.18.307.18.56v3.7c0 .2-.06.36-.18.48a.666.666 0 01-.46.16zm27.962-2.16c.307.2.46.447.46.74a.969.969 0 01-.08.36l-2.26 3.32c-.106.12-.2.22-.28.3a.397.397 0 01-.26.1c-.146 0-.326-.08-.54-.24a9.156 9.156 0 00-2.64-1.36c-.96-.32-1.96-.5-3-.54-1.44 0-2.767.267-3.98.8a9.81 9.81 0 00-3.16 2.14 9.655 9.655 0 00-2.06 3.14 9.948 9.948 0 00-.74 3.82c0 1.387.247 2.68.74 3.88a9.92 9.92 0 002.06 3.1c.88.867 1.9 1.553 3.06 2.06a9.602 9.602 0 003.76.74 9.678 9.678 0 002.92-.44 10.55 10.55 0 002.64-1.3c.187-.12.36-.227.52-.32.174-.093.307-.14.4-.14.134 0 .32.147.56.44.254.293.514.64.78 1.04.28.4.554.813.82 1.24.267.427.494.78.68 1.06.067.173.1.313.1.42 0 .16-.053.293-.16.4a3 3 0 01-.36.3 15.812 15.812 0 01-4.06 2.02c-1.453.48-3.026.72-4.72.72a15.29 15.29 0 01-4.08-.54 15.67 15.67 0 01-3.64-1.52 15.838 15.838 0 01-3.1-2.38 15.838 15.838 0 01-2.38-3.1 15.67 15.67 0 01-1.52-3.64 15.071 15.071 0 01-.54-4.06c0-1.413.18-2.767.54-4.06.36-1.307.873-2.527 1.54-3.66a15.838 15.838 0 012.38-3.1 14.87 14.87 0 013.1-2.38 15.166 15.166 0 013.64-1.54 14.78 14.78 0 014.08-.56c1.627 0 3.167.233 4.62.7a15.06 15.06 0 014.16 2.04zm-8.5 8.7a3.56 3.56 0 011.5.32c.467.2.874.473 1.22.82.36.347.64.76.84 1.24.2.467.3.967.3 1.5s-.1 1.033-.3 1.5c-.2.467-.48.873-.84 1.22-.346.333-.753.6-1.22.8-.466.187-.966.28-1.5.28-.533 0-1.033-.1-1.5-.3-.466-.2-.88-.473-1.24-.82a3.919 3.919 0 01-.82-1.2c-.2-.467-.3-.96-.3-1.48 0-.533.1-1.033.3-1.5.2-.48.474-.893.82-1.24.36-.347.773-.62 1.24-.82.467-.213.967-.32 1.5-.32zm23.931 7.98h-4v9.94c0 .493-.26.74-.78.74h-4.02c-.52 0-.78-.247-.78-.74v-7c.013-2.32.02-4.66.02-7.02 0-.227.073-.413.22-.56a.758.758 0 01.56-.22h6.14l-7.52-13.42a.674.674 0 01-.12-.38c0-.227.16-.34.48-.34h13.26c1.333 0 2.56.267 3.68.8a9.2 9.2 0 012.92 2.14 9.482 9.482 0 011.92 3.04c.453 1.147.68 2.34.68 3.58 0 .987-.153 1.953-.46 2.9a9.508 9.508 0 01-1.32 2.62 9.998 9.998 0 01-2.06 2.12 8.858 8.858 0 01-2.68 1.4l5.92 10.42c.04.093.073.18.1.26.04.067.06.127.06.18 0 .147-.18.22-.54.22h-5c-.48 0-.86-.253-1.14-.76l-5.54-9.92zm7.14-9.48c0-.56-.107-1.1-.32-1.62-.2-.52-.48-.987-.84-1.4a4.397 4.397 0 00-1.28-1.04 4.188 4.188 0 00-1.6-.52 17.69 17.69 0 00-1.7-.08h-3.04l5.2 9.08a3.77 3.77 0 001.4-.56c.44-.28.82-.613 1.14-1 .32-.4.573-.847.76-1.34.187-.493.28-1 .28-1.52zm15.121 5.3c0 1.373.247 2.66.74 3.86a9.812 9.812 0 002.04 3.14c.88.893 1.907 1.6 3.08 2.12 1.187.507 2.46.76 3.82.76 1.36 0 2.633-.253 3.82-.76a9.622 9.622 0 003.08-2.12 9.812 9.812 0 002.04-3.14c.507-1.2.76-2.487.76-3.86 0-1.36-.253-2.64-.76-3.84a9.579 9.579 0 00-2.04-3.12 9.622 9.622 0 00-3.08-2.12 9.413 9.413 0 00-3.82-.78c-1.36 0-2.633.26-3.82.78a9.928 9.928 0 00-3.08 2.12 9.579 9.579 0 00-2.04 3.12c-.493 1.2-.74 2.48-.74 3.84zm-5.58.06c0-1.413.18-2.767.54-4.06.36-1.307.873-2.527 1.54-3.66a15.85 15.85 0 012.38-3.1 14.87 14.87 0 013.1-2.38 15.166 15.166 0 013.64-1.54 14.783 14.783 0 014.08-.56c1.4 0 2.747.18 4.04.54 1.307.36 2.527.873 3.66 1.54a15.437 15.437 0 013.1 2.4c.933.92 1.727 1.953 2.38 3.1a15.072 15.072 0 011.54 3.66c.373 1.307.56 2.667.56 4.08 0 1.4-.187 2.753-.56 4.06a15.154 15.154 0 01-1.54 3.64 15.106 15.106 0 01-2.38 3.08 15.838 15.838 0 01-3.1 2.38 15.57 15.57 0 01-3.66 1.52c-1.293.36-2.647.54-4.06.54-1.413 0-2.773-.18-4.08-.54a15.67 15.67 0 01-3.64-1.52 15.838 15.838 0 01-3.1-2.38 15.85 15.85 0 01-2.38-3.1 15.683 15.683 0 01-1.52-3.64 15.071 15.071 0 01-.54-4.06zm15.3-3.88c.533 0 1.033.107 1.5.32.467.2.873.473 1.22.82.36.347.64.76.84 1.24.2.467.3.967.3 1.5s-.1 1.033-.3 1.5c-.2.467-.48.873-.84 1.22-.347.333-.753.6-1.22.8-.467.187-.967.28-1.5.28a3.77 3.77 0 01-1.5-.3c-.467-.2-.88-.473-1.24-.82a3.913 3.913 0 01-.82-1.2c-.2-.467-.3-.96-.3-1.48 0-.533.1-1.033.3-1.5.2-.48.473-.893.82-1.24.36-.347.773-.62 1.24-.82.467-.213.967-.32 1.5-.32zm43.692 9.88c.546-1.467 1.126-3.033 1.74-4.7.626-1.667 1.253-3.36 1.88-5.08.64-1.72 1.28-3.433 1.92-5.14.64-1.72 1.253-3.373 1.84-4.96.133-.253.32-.487.56-.7.24-.213.5-.32.78-.32h3.94c.346 0 .606.08.78.24.186.147.28.353.28.62 0 .053-.014.133-.04.24-.014.093-.02.153-.02.18l-10.94 27.04c-.054.133-.12.28-.2.44-.067.16-.16.313-.28.46a1.43 1.43 0 01-.4.34c-.16.093-.347.14-.56.14h-2.62c-.24 0-.447-.053-.62-.16a2.283 2.283 0 01-.44-.44c-.12-.187-.234-.4-.34-.64a36.98 36.98 0 01-.28-.74l-2.14-5.38a867.392 867.392 0 00-1.84-4.58l-4.26 10.56c-.054.133-.12.28-.2.44-.067.16-.16.313-.28.46a1.43 1.43 0 01-.4.34c-.16.093-.347.14-.56.14h-2.62c-.24 0-.447-.053-.62-.16a2.283 2.283 0 01-.44-.44c-.12-.187-.234-.4-.34-.64a36.98 36.98 0 01-.28-.74 1520.303 1520.303 0 00-3.48-8.7c-1-2.507-1.874-4.693-2.62-6.56-.747-1.867-1.38-3.44-1.9-4.72-.507-1.293-.934-2.36-1.28-3.2a369.56 369.56 0 00-.78-1.98l-.42-1.08c-.08-.253-.134-.413-.16-.48a1.184 1.184 0 01-.02-.2c0-.533.333-.8 1-.8h4.06c.626 0 1.033.307 1.22.92l7.4 19.98c.6-1.613 1.233-3.327 1.9-5.14.68-1.813 1.366-3.667 2.06-5.56l-1.52-3.78c-.414-1.027-.754-1.88-1.02-2.56-.267-.68-.48-1.213-.64-1.6-.147-.387-.26-.68-.34-.88a4.048 4.048 0 01-.12-.4.878.878 0 01-.02-.18c0-.533.333-.8 1-.8h11.36c.346 0 .606.08.78.24.186.147.28.353.28.62 0 .053-.014.133-.04.24-.014.093-.02.153-.02.18l-3.62 8.96 3.94 10.66z" fill="#093373"/>
  <path fill-rule="evenodd" clip-rule="evenodd" d="M0 8.5a8.5 8.5 0 004.744 7.627A26.89 26.89 0 002 28c0 14.223 10.997 25.877 24.952 26.923a.058.058 0 01-.002-.023c.037-.293.02-6.072.008-9.133A9 9 0 1138 37a9.003 9.003 0 01-7.042 8.786c.012 3.066.029 8.821-.008 9.114a.072.072 0 01-.012.032C44.944 53.938 56 42.26 56 28c0-4.434-1.069-8.62-2.963-12.31A8.5 8.5 0 1041.31 3.963 26.885 26.885 0 0029 1a26.878 26.878 0 00-13.07 3.369A8.5 8.5 0 000 8.5z" fill="#093373"/>
  <circle cx="29" cy="37" r="3" fill="#FF9800"/>
  <path fill="#FF9800" d="M66 51h145v4H66z"/>
  <circle cx="156.8" cy="31" r="4" fill="#FF9800"/>
  <circle cx="100.9" cy="31" r="4" fill="#FF9800"/>
</svg>
